packages/kaspersky-hexa-ui-icons/src/iconsSVGs/24/SpecialSymbol.svg

<svg width="24" height="24" viewBox="0 0 24 24" fill="none" xmlns="http://www.w3.org/2000/svg">
<path fill-rule="evenodd" clip-rule="evenodd" d="M9 13H8C5.23858 13 3 10.7614 3 8C3 5.23858 5.23858 3 8 3H19C19.5523 3 20 3.44772 20 4C20 4.55228 19.5523 5 19 5H16V20C16 20.5523 15.5523 21 15 21C14.4477 21 14 20.5523 14 20V5H11V20C11 20.5523 10.5523 21 10 21C9.44772 21 9 20.5523 9 20V13ZM5 8C5 6.34315 6.34315 5 8 5H9V11H8C6.34315 11 5 9.65685 5 8Z" fill="black"/>
</svg>

<svg xmlns="http://www.w3.org/2000/svg" width="24" height="24" fill="none" viewBox="0 0 24 24"><path fill="#000" fill-rule="evenodd" d="M9 13H8c-2.7614 0-5-2.2386-5-5s2.2386-5 5-5h11c.5523 0 1 .4477 1 1s-.4477 1-1 1h-3v15c0 .5523-.4477 1-1 1s-1-.4477-1-1V5h-3v15c0 .5523-.4477 1-1 1s-1-.4477-1-1zM5 8c0-1.6569 1.3431-3 3-3h1v6H8c-1.6569 0-3-1.3431-3-3"/></svg>
